Newaita-dark/apps/64/qelectrotech.svg

<svg height="64pt" viewBox="0 0 64 64" width="64pt" xmlns="http://www.w3.org/2000/svg" xmlns:xlink="http://www.w3.org/1999/xlink"><linearGradient id="a" gradientUnits="userSpaceOnUse" x1="31.75304" x2="31.75304" y1="56.067872" y2="58.71396000006"><stop offset="0" stop-opacity=".27451"/><stop offset="1" stop-opacity="0"/></linearGradient><linearGradient id="b"><stop offset="0" stop-opacity=".313726"/><stop offset=".222222" stop-opacity=".27451"/><stop offset="1" stop-opacity="0"/></linearGradient><radialGradient id="c" cx="450.908936" cy="189.579361" gradientTransform="matrix(.00000035 -.156265 -.281277 -.0000002 106.24586 127.190665)" gradientUnits="userSpaceOnUse" r="21.166656" xlink:href="#b"/><radialGradient id="d" cx="450.908936" cy="189.579361" gradientTransform="matrix(-.00000035 .156265 .281277 .0000002 -42.409041 -15.054958)" gradientUnits="userSpaceOnUse" r="21.166656" xlink:href="#b"/><radialGradient id="e" cx="450.908936" cy="189.579361" gradientTransform="matrix(-.00000035 -.156265 .281277 -.0000002 -42.409041 127.190665)" gradientUnits="userSpaceOnUse" r="21.166656" xlink:href="#b"/><radialGradient id="f" cx="450.908936" cy="189.579361" gradientTransform="matrix(.00000035 .156265 -.281277 .0000002 106.245857 -15.054959)" gradientUnits="userSpaceOnUse" r="21.166656" xlink:href="#b"/><linearGradient id="g" gradientUnits="userSpaceOnUse" x1="31.753048" x2="31.753048" y1="56.067868" y2="5.79221000013"><stop offset="0" stop-color="#a1887f"/><stop offset="1" stop-color="#bcaaa4"/></linearGradient><linearGradient id="h" gradientTransform="matrix(.113106 0 0 .111853 3.024099 27.304142)" gradientUnits="userSpaceOnUse" x1="254" x2="254" y1="233.5" y2="-168.666656"><stop offset="0" stop-color="#5c6bc0"/><stop offset="1" stop-color="#7986cb"/></linearGradient><path d="m10.253906 56.066406h43.328125v2.648438h-43.328125zm0 0" fill="url(#a)"/><path d="m53.582031 56.066406h5.292969v-2.644531h-5.292969zm0 0" fill="url(#c)"/><path d="m10.253906 56.066406h-5.292968v2.648438h5.292968zm0 0" fill="url(#d)"/><path d="m10.253906 56.066406h-5.292968v-2.644531h5.292968zm0 0" fill="url(#e)"/><path d="m53.582031 56.066406h5.292969v2.648438h-5.292969zm0 0" fill="url(#f)"/><path d="m6.613281 5.792969h50.277344c1.460937 0 2.644531 1.183593 2.644531 2.644531v44.984375c0 1.460937-1.183594 2.644531-2.644531 2.644531h-50.277344c-1.460937 0-2.644531-1.183594-2.644531-2.644531v-44.984375c0-1.460938 1.183594-2.644531 2.644531-2.644531zm0 0" fill="url(#g)"/><path d="m6.613281 5.792969c-1.464843 0-2.644531 1.179687-2.644531 2.644531v.664062c0-1.46875 1.179688-2.648437 2.644531-2.648437h50.277344c1.464844 0 2.644531 1.179687 2.644531 2.648437v-.664062c0-1.464844-1.179687-2.644531-2.644531-2.644531zm0 0" fill="#fbfbfb" fill-opacity=".392157"/><path d="m6.613281 56.066406c-1.464843 0-2.644531-1.179687-2.644531-2.644531v-.660156c0 1.464843 1.179688 2.644531 2.644531 2.644531h50.277344c1.464844 0 2.644531-1.179688 2.644531-2.644531v.660156c0 1.464844-1.179687 2.644531-2.644531 2.644531zm0 0" fill-opacity=".235294"/><path d="m6.613281 5.605469c-1.566406 0-2.832031 1.265625-2.832031 2.832031v44.984375c0 1.566406 1.265625 2.832031 2.832031 2.832031h50.277344c1.566406 0 2.832031-1.265625 2.832031-2.832031v-44.984375c0-1.566406-1.265625-2.832031-2.832031-2.832031zm0 .375h50.277344c1.367187 0 2.457031 1.09375 2.457031 2.457031v44.984375c0 1.367187-1.089844 2.457031-2.457031 2.457031h-50.277344c-1.363281 0-2.457031-1.089844-2.457031-2.457031v-44.984375c0-1.363281 1.09375-2.457031 2.457031-2.457031zm0 0" fill="#212121"/><path d="m8.601562 8.4375h46.304688c1.097656 0 1.984375.890625 1.984375 1.984375v41.015625c0 1.097656-.886719 1.984375-1.984375 1.984375h-46.304688c-1.097656 0-1.988281-.886719-1.988281-1.984375v-41.015625c0-1.09375.890625-1.984375 1.988281-1.984375zm0 0" fill="url(#h)"/><path d="m6.613281 51.4375v.660156c0 1.101563.886719 1.984375 1.988281 1.984375h46.304688c1.097656 0 1.984375-.882812 1.984375-1.984375v-.660156c0 1.097656-.886719 1.984375-1.984375 1.984375h-46.304688c-1.101562 0-1.988281-.886719-1.988281-1.984375zm0 0" fill="#fff" fill-opacity=".392157"/><path d="m8.601562 8.4375c-1.101562 0-1.988281.886719-1.988281 1.984375v.992187c0-1.097656.886719-1.984374 1.988281-1.984374h46.304688c1.097656 0 1.984375.886718 1.984375 1.984374v-.992187c0-1.097656-.886719-1.984375-1.984375-1.984375zm0 0" fill-opacity=".235294"/><path d="m68.805929-147.506445h370.402129c8.780411 0 15.873484 7.124319 15.873484 15.873484v328.093668c0 8.780412-7.093073 15.873485-15.873484 15.873485h-370.402129c-8.780411 0-15.904731-7.093073-15.904731-15.873485v-328.093668c0-8.749165 7.12432-15.873484 15.904731-15.873484zm0 0" fill="none" stroke="#212121" stroke-linecap="round" stroke-linejoin="round" stroke-width="3" transform="matrix(.125012 0 0 .125012 0 26.877566)"/><path d="m26.460938 22c-4.796876 0-8.714844 3.609375-9.207032 8.269531h-2.699218v1.984375h2.699218c.492188 4.660156 4.410156 8.269532 9.207032 8.269532 4.796874 0 8.714843-3.609376 9.207031-8.269532h7.992187v3.636719c0 .367187.296875.664063.660156.664063h.664063c.367187 0 .660156-.296876.660156-.664063v-9.589844c0-.367187-.292969-.664062-.660156-.664062h-.664063c-.363281 0-.660156.296875-.660156.664062v3.96875h-7.992187c-.492188-4.660156-4.410157-8.269531-9.207031-8.269531zm0 1.984375c1.65625 0 3.179687.546875 4.398437 1.472656l-4.398437 4.402344-4.398438-4.402344c1.21875-.925781 2.742188-1.472656 4.398438-1.472656zm-5.804688 2.875 4.402344 4.402344-4.402344 4.398437c-.925781-1.21875-1.472656-2.742187-1.472656-4.398437s.546875-3.179688 1.472656-4.402344zm11.609375 0c.921875 1.222656 1.472656 2.746094 1.472656 4.402344s-.550781 3.179687-1.472656 4.398437l-4.402344-4.398437zm15.363281.433594c-.367187 0-.660156.292969-.660156.660156v6.617187c0 .363282.292969.660157.660156.660157h.664063c.363281 0 .660156-.296875.660156-.660157v-6.617187c0-.367187-.296875-.660156-.660156-.660156zm-21.167968 5.371093 4.398437 4.398438c-1.21875.925781-2.742187 1.476562-4.398437 1.476562s-3.179688-.550781-4.398438-1.476562zm0 0" fill="#fff" fill-opacity=".588235"/></svg>

<?xml version="1.0" encoding="UTF-8"?>
<svg xmlns="http://www.w3.org/2000/svg" xmlns:xlink="http://www.w3.org/1999/xlink" width="64pt" height="64pt" viewBox="0 0 64 64" version="1.1">
<defs>
<linearGradient id="linear0" gradientUnits="userSpaceOnUse" x1="254" y1="233.5" x2="254" y2="254.666672" gradientTransform="matrix(0.125012,0,0,0.125012,-0.00000763012,26.87757)">
<stop offset="0" style="stop-color:rgb(0%,0%,0%);stop-opacity:0.27451;"/>
<stop offset="1" style="stop-color:rgb(0%,0%,0%);stop-opacity:0;"/>
</linearGradient>
<radialGradient id="radial0" gradientUnits="userSpaceOnUse" cx="450.908936" cy="189.579361" fx="450.908936" fy="189.579361" r="21.166656" gradientTransform="matrix(0.000000348341,-0.156265,-0.281277,-0.000000203077,106.24586,127.190665)">
<stop offset="0" style="stop-color:rgb(0%,0%,0%);stop-opacity:0.313726;"/>
<stop offset="0.222222" style="stop-color:rgb(0%,0%,0%);stop-opacity:0.27451;"/>
<stop offset="1" style="stop-color:rgb(0%,0%,0%);stop-opacity:0;"/>
</radialGradient>
<radialGradient id="radial1" gradientUnits="userSpaceOnUse" cx="450.908936" cy="189.579361" fx="450.908936" fy="189.579361" r="21.166656" gradientTransform="matrix(-0.000000348341,0.156265,0.281277,0.000000203077,-42.409041,-15.054958)">
<stop offset="0" style="stop-color:rgb(0%,0%,0%);stop-opacity:0.313726;"/>
<stop offset="0.222222" style="stop-color:rgb(0%,0%,0%);stop-opacity:0.27451;"/>
<stop offset="1" style="stop-color:rgb(0%,0%,0%);stop-opacity:0;"/>
</radialGradient>
<radialGradient id="radial2" gradientUnits="userSpaceOnUse" cx="450.908936" cy="189.579361" fx="450.908936" fy="189.579361" r="21.166656" gradientTransform="matrix(-0.000000348341,-0.156265,0.281277,-0.000000203077,-42.409041,127.190665)">
<stop offset="0" style="stop-color:rgb(0%,0%,0%);stop-opacity:0.313726;"/>
<stop offset="0.222222" style="stop-color:rgb(0%,0%,0%);stop-opacity:0.27451;"/>
<stop offset="1" style="stop-color:rgb(0%,0%,0%);stop-opacity:0;"/>
</radialGradient>
<radialGradient id="radial3" gradientUnits="userSpaceOnUse" cx="450.908936" cy="189.579361" fx="450.908936" fy="189.579361" r="21.166656" gradientTransform="matrix(0.000000348341,0.156265,-0.281277,0.000000203077,106.245857,-15.054959)">
<stop offset="0" style="stop-color:rgb(0%,0%,0%);stop-opacity:0.313726;"/>
<stop offset="0.222222" style="stop-color:rgb(0%,0%,0%);stop-opacity:0.27451;"/>
<stop offset="1" style="stop-color:rgb(0%,0%,0%);stop-opacity:0;"/>
</radialGradient>
<linearGradient id="linear1" gradientUnits="userSpaceOnUse" x1="254" y1="233.5" x2="254" y2="-168.666656" gradientTransform="matrix(0.125012,0,0,0.125012,0,26.877566)">
<stop offset="0" style="stop-color:rgb(63.137257%,53.333336%,49.803922%);stop-opacity:1;"/>
<stop offset="1" style="stop-color:rgb(73.725492%,66.666669%,64.313728%);stop-opacity:1;"/>
</linearGradient>
<linearGradient id="linear2" gradientUnits="userSpaceOnUse" x1="254" y1="233.5" x2="254" y2="-168.666656" gradientTransform="matrix(0.113106,0,0,0.111853,3.024099,27.304142)">
<stop offset="0" style="stop-color:rgb(36.078432%,41.960785%,75.294119%);stop-opacity:1;"/>
<stop offset="1" style="stop-color:rgb(47.450981%,52.549022%,79.607844%);stop-opacity:1;"/>
</linearGradient>
</defs>
<g id="surface1">
<path style=" stroke:none;fill-rule:nonzero;fill:url(#linear0);" d="M 10.253906 56.066406 L 53.582031 56.066406 L 53.582031 58.714844 L 10.253906 58.714844 Z M 10.253906 56.066406 "/>
<path style=" stroke:none;fill-rule:nonzero;fill:url(#radial0);" d="M 53.582031 56.066406 L 58.875 56.066406 L 58.875 53.421875 L 53.582031 53.421875 Z M 53.582031 56.066406 "/>
<path style=" stroke:none;fill-rule:nonzero;fill:url(#radial1);" d="M 10.253906 56.066406 L 4.960938 56.066406 L 4.960938 58.714844 L 10.253906 58.714844 Z M 10.253906 56.066406 "/>
<path style=" stroke:none;fill-rule:nonzero;fill:url(#radial2);" d="M 10.253906 56.066406 L 4.960938 56.066406 L 4.960938 53.421875 L 10.253906 53.421875 Z M 10.253906 56.066406 "/>
<path style=" stroke:none;fill-rule:nonzero;fill:url(#radial3);" d="M 53.582031 56.066406 L 58.875 56.066406 L 58.875 58.714844 L 53.582031 58.714844 Z M 53.582031 56.066406 "/>
<path style=" stroke:none;fill-rule:nonzero;fill:url(#linear1);" d="M 6.613281 5.792969 L 56.890625 5.792969 C 58.351562 5.792969 59.535156 6.976562 59.535156 8.4375 L 59.535156 53.421875 C 59.535156 54.882812 58.351562 56.066406 56.890625 56.066406 L 6.613281 56.066406 C 5.152344 56.066406 3.96875 54.882812 3.96875 53.421875 L 3.96875 8.4375 C 3.96875 6.976562 5.152344 5.792969 6.613281 5.792969 Z M 6.613281 5.792969 "/>
<path style=" stroke:none;fill-rule:nonzero;fill:rgb(98.431373%,98.431373%,98.431373%);fill-opacity:0.392157;" d="M 6.613281 5.792969 C 5.148438 5.792969 3.96875 6.972656 3.96875 8.4375 L 3.96875 9.101562 C 3.96875 7.632812 5.148438 6.453125 6.613281 6.453125 L 56.890625 6.453125 C 58.355469 6.453125 59.535156 7.632812 59.535156 9.101562 L 59.535156 8.4375 C 59.535156 6.972656 58.355469 5.792969 56.890625 5.792969 Z M 6.613281 5.792969 "/>
<path style=" stroke:none;fill-rule:nonzero;fill:rgb(0%,0%,0%);fill-opacity:0.235294;" d="M 6.613281 56.066406 C 5.148438 56.066406 3.96875 54.886719 3.96875 53.421875 L 3.96875 52.761719 C 3.96875 54.226562 5.148438 55.40625 6.613281 55.40625 L 56.890625 55.40625 C 58.355469 55.40625 59.535156 54.226562 59.535156 52.761719 L 59.535156 53.421875 C 59.535156 54.886719 58.355469 56.066406 56.890625 56.066406 Z M 6.613281 56.066406 "/>
<path style=" stroke:none;fill-rule:nonzero;fill:rgb(12.941177%,12.941177%,12.941177%);fill-opacity:1;" d="M 6.613281 5.605469 C 5.046875 5.605469 3.78125 6.871094 3.78125 8.4375 L 3.78125 53.421875 C 3.78125 54.988281 5.046875 56.253906 6.613281 56.253906 L 56.890625 56.253906 C 58.457031 56.253906 59.722656 54.988281 59.722656 53.421875 L 59.722656 8.4375 C 59.722656 6.871094 58.457031 5.605469 56.890625 5.605469 Z M 6.613281 5.980469 L 56.890625 5.980469 C 58.257812 5.980469 59.347656 7.074219 59.347656 8.4375 L 59.347656 53.421875 C 59.347656 54.789062 58.257812 55.878906 56.890625 55.878906 L 6.613281 55.878906 C 5.25 55.878906 4.15625 54.789062 4.15625 53.421875 L 4.15625 8.4375 C 4.15625 7.074219 5.25 5.980469 6.613281 5.980469 Z M 6.613281 5.980469 "/>
<path style=" stroke:none;fill-rule:nonzero;fill:url(#linear2);" d="M 8.601562 8.4375 L 54.90625 8.4375 C 56.003906 8.4375 56.890625 9.328125 56.890625 10.421875 L 56.890625 51.4375 C 56.890625 52.535156 56.003906 53.421875 54.90625 53.421875 L 8.601562 53.421875 C 7.503906 53.421875 6.613281 52.535156 6.613281 51.4375 L 6.613281 10.421875 C 6.613281 9.328125 7.503906 8.4375 8.601562 8.4375 Z M 8.601562 8.4375 "/>
<path style=" stroke:none;fill-rule:nonzero;fill:rgb(100%,100%,100%);fill-opacity:0.392157;" d="M 6.613281 51.4375 L 6.613281 52.097656 C 6.613281 53.199219 7.5 54.082031 8.601562 54.082031 L 54.90625 54.082031 C 56.003906 54.082031 56.890625 53.199219 56.890625 52.097656 L 56.890625 51.4375 C 56.890625 52.535156 56.003906 53.421875 54.90625 53.421875 L 8.601562 53.421875 C 7.5 53.421875 6.613281 52.535156 6.613281 51.4375 Z M 6.613281 51.4375 "/>
<path style=" stroke:none;fill-rule:nonzero;fill:rgb(0%,0%,0%);fill-opacity:0.235294;" d="M 8.601562 8.4375 C 7.5 8.4375 6.613281 9.324219 6.613281 10.421875 L 6.613281 11.414062 C 6.613281 10.316406 7.5 9.429688 8.601562 9.429688 L 54.90625 9.429688 C 56.003906 9.429688 56.890625 10.316406 56.890625 11.414062 L 56.890625 10.421875 C 56.890625 9.324219 56.003906 8.4375 54.90625 8.4375 Z M 8.601562 8.4375 "/>
<path style="fill:none;stroke-width:3;stroke-linecap:round;stroke-linejoin:round;stroke:rgb(12.941177%,12.941177%,12.941177%);stroke-opacity:1;stroke-miterlimit:4;" d="M 68.805929 -147.506445 L 439.208058 -147.506445 C 447.988469 -147.506445 455.081542 -140.382126 455.081542 -131.632961 L 455.081542 196.460707 C 455.081542 205.241119 447.988469 212.334192 439.208058 212.334192 L 68.805929 212.334192 C 60.025518 212.334192 52.901198 205.241119 52.901198 196.460707 L 52.901198 -131.632961 C 52.901198 -140.382126 60.025518 -147.506445 68.805929 -147.506445 Z M 68.805929 -147.506445 " transform="matrix(0.125012,0,0,0.125012,0,26.877566)"/>
<path style=" stroke:none;fill-rule:nonzero;fill:rgb(100%,100%,100%);fill-opacity:0.588235;" d="M 26.460938 22 C 21.664062 22 17.746094 25.609375 17.253906 30.269531 L 14.554688 30.269531 L 14.554688 32.253906 L 17.253906 32.253906 C 17.746094 36.914062 21.664062 40.523438 26.460938 40.523438 C 31.257812 40.523438 35.175781 36.914062 35.667969 32.253906 L 43.660156 32.253906 L 43.660156 35.890625 C 43.660156 36.257812 43.957031 36.554688 44.320312 36.554688 L 44.984375 36.554688 C 45.351562 36.554688 45.644531 36.257812 45.644531 35.890625 L 45.644531 26.300781 C 45.644531 25.933594 45.351562 25.636719 44.984375 25.636719 L 44.320312 25.636719 C 43.957031 25.636719 43.660156 25.933594 43.660156 26.300781 L 43.660156 30.269531 L 35.667969 30.269531 C 35.175781 25.609375 31.257812 22 26.460938 22 Z M 26.460938 23.984375 C 28.117188 23.984375 29.640625 24.53125 30.859375 25.457031 L 26.460938 29.859375 L 22.0625 25.457031 C 23.28125 24.53125 24.804688 23.984375 26.460938 23.984375 Z M 20.65625 26.859375 L 25.058594 31.261719 L 20.65625 35.660156 C 19.730469 34.441406 19.183594 32.917969 19.183594 31.261719 C 19.183594 29.605469 19.730469 28.082031 20.65625 26.859375 Z M 32.265625 26.859375 C 33.1875 28.082031 33.738281 29.605469 33.738281 31.261719 C 33.738281 32.917969 33.1875 34.441406 32.265625 35.660156 L 27.863281 31.261719 Z M 47.628906 27.292969 C 47.261719 27.292969 46.96875 27.585938 46.96875 27.953125 L 46.96875 34.570312 C 46.96875 34.933594 47.261719 35.230469 47.628906 35.230469 L 48.292969 35.230469 C 48.65625 35.230469 48.953125 34.933594 48.953125 34.570312 L 48.953125 27.953125 C 48.953125 27.585938 48.65625 27.292969 48.292969 27.292969 Z M 26.460938 32.664062 L 30.859375 37.0625 C 29.640625 37.988281 28.117188 38.539062 26.460938 38.539062 C 24.804688 38.539062 23.28125 37.988281 22.0625 37.0625 Z M 26.460938 32.664062 "/>
</g>
</svg>
